assets/Castle/Flat/castle_flat.svg

<svg width="32" height="32" viewBox="0 0 32 32" fill="none" xmlns="http://www.w3.org/2000/svg">
<path d="M18.73 8.235H13.31C13.01 8.235 12.81 7.915 12.95 7.645L15.66 2.225C15.81 1.925 16.23 1.925 16.38 2.225L19.09 7.645C19.23 7.915 19.03 8.235 18.73 8.235ZM12.3476 20H3.65244C3.16703 20 2.85046 19.5829 3.07206 19.2266L7.41962 10.2933C7.66233 9.90224 8.33767 9.90224 8.58038 10.2933L12.9279 19.2266C13.1495 19.5829 12.833 20 12.3476 20ZM19.6524 20H28.3476C28.833 20 29.1495 19.5829 28.9279 19.2266L24.5804 10.2933C24.3377 9.90224 23.6623 9.90224 23.4196 10.2933L19.0721 19.2266C18.8505 19.5829 19.167 20 19.6524 20Z" fill="#F8312F"/>
<path d="M19.391 7H18.9439C18.611 7 18.3256 7.26877 18.3351 7.60474C18.3446 7.95031 18.0688 8.22868 17.7263 8.22868H17.441C17.1081 8.22868 16.8227 7.95991 16.8322 7.62394C16.8417 7.27837 16.5659 7 16.2234 7H15.7763C15.4434 7 15.1581 7.26877 15.1676 7.60474C15.1771 7.95031 14.9012 8.22868 14.5588 8.22868H14.2734C13.9405 8.22868 13.6551 7.95991 13.6646 7.62394C13.6741 7.27837 13.3983 7 13.0559 7H12.6088C12.2759 7 12 7.27837 12 7.61434V8.22868V11.4252C12 11.7612 12.1671 12 12.5 12H13C12.4959 12 12 12 12 13V24H19.9998V13C20 12 19.5041 12 19 12H19.5C19.8329 12 19.9998 11.7612 19.9998 11.4252V8.22868V7.61434C20.0093 7.26878 19.7334 7 19.391 7Z" fill="#998EA4"/>
<path d="M30 19.1976V19.5873L29.99 30H18.9573L15.9667 28.3026L12.9761 30H2V19.5873V19.1976V18.5988C2 18.2661 2.30989 18 2.65976 18H3.1296C3.47947 18 3.75937 18.2661 3.75937 18.5988C3.75937 18.9315 4.03927 19.1976 4.38915 19.1976H4.67904C5.02892 19.1976 5.30882 18.9315 5.30882 18.5988C5.30882 18.2661 5.58872 18 5.93859 18H6.39843C6.7483 18 7.0282 18.2661 7.0282 18.5988C7.0282 18.9315 7.3081 19.1976 7.65798 19.1976H7.95787C8.30775 19.1976 8.58765 18.9315 8.58765 18.5988C8.58765 18.2661 8.86755 18 9.21742 18H9.22742H9.67726H9.68725C10.0371 18 10.317 18.2661 10.317 18.5988C10.317 18.9315 10.5969 19.1976 10.9468 19.1976H11.2567C11.6066 19.1976 11.8865 18.9315 11.8865 18.5988C11.8865 18.2661 12.1664 18 12.5162 18H12.9761C13.326 18 13.6059 18.2661 13.6059 18.5988C13.6059 18.9315 13.8858 19.1976 14.2356 19.1976H14.5255C14.8754 19.1976 15.1553 18.9315 15.1553 18.5988C15.1553 18.2661 15.4352 18 15.7851 18H15.7951H16.2749H16.2849C16.6348 18 16.9147 18.2661 16.9147 18.5988C16.9147 18.9315 17.1946 19.1976 17.5444 19.1976H17.8343C18.1842 19.1976 18.4641 18.9315 18.4641 18.5988C18.4641 18.2661 18.744 18 19.0939 18H19.5537C19.9036 18 20.1835 18.2661 20.1835 18.5988C20.1835 18.9315 20.4634 19.1976 20.8133 19.1976H21.1032C21.4531 19.1976 21.733 18.9315 21.733 18.5988C21.733 18.2661 22.0129 18 22.3627 18H22.3727H22.8226H22.8326C23.1824 18 23.4623 18.2661 23.4623 18.5988C23.4623 18.9315 23.7422 19.1976 24.0921 19.1976H24.382C24.7319 19.1976 25.0118 18.9315 25.0118 18.5988C25.0118 18.2661 25.2917 18 25.6416 18H26.1014C26.4513 18 26.7312 18.2661 26.7312 18.5988C26.7312 18.9315 27.0111 19.1976 27.3609 19.1976H27.6508C28.0007 19.1976 28.2806 18.9315 28.2806 18.5988C28.2806 18.2661 28.5605 18 28.9104 18H29.3702C29.7201 18 30 18.2661 30 18.5988V19.1976Z" fill="#B4ACBC"/>
<path d="M15 14H16.9873H17V13C17 12.443 16.5443 12 16 12C15.443 12 15 12.4557 15 13V14ZM13 30H18.9907V26.7692C18.9907 24.9888 17.66 24 16 24C14.3493 24 13 24.9788 13 26.7692V30Z" fill="#5235A6"/>
<path d="M7.5 7.30591V9.19016C7.5 9.40494 7.71212 9.55139 7.91414 9.48305L10.2632 8.36557C10.3582 8.32038 10.3583 8.18523 10.2634 8.13989L7.90404 7.01302C7.70202 6.95444 7.5 7.10088 7.5 7.30591ZM23.5 7.30591V9.19016C23.5 9.40494 23.7121 9.55139 23.9141 9.48305L26.2632 8.36557C26.3582 8.32038 26.3583 8.18523 26.2634 8.13989L23.904 7.01302C23.702 6.95444 23.5 7.10088 23.5 7.30591Z" fill="#26C9FC"/>
</svg>

<svg xmlns="http://www.w3.org/2000/svg" width="32" height="32" fill="none"><path fill="#F8312F" d="M18.73 8.235h-5.42c-.3 0-.5-.32-.36-.59l2.71-5.42a.4.4 0 0 1 .72 0l2.71 5.42c.14.27-.06.59-.36.59ZM12.348 20H3.652c-.485 0-.802-.417-.58-.773l4.348-8.934c.242-.39.918-.39 1.16 0l4.348 8.934c.221.356-.095.773-.58.773Zm7.304 0h8.696c.485 0 .802-.417.58-.773l-4.348-8.934c-.242-.39-.918-.39-1.16 0l-4.348 8.934c-.221.356.095.773.58.773Z"/><path fill="#998EA4" d="M19.391 7h-.447a.602.602 0 0 0-.609.605.606.606 0 0 1-.609.624h-.285a.602.602 0 0 1-.609-.605.606.606 0 0 0-.609-.624h-.447a.602.602 0 0 0-.608.605.606.606 0 0 1-.61.624h-.285a.602.602 0 0 1-.608-.605.606.606 0 0 0-.61-.624h-.446a.616.616 0 0 0-.609.614v3.811c0 .336.167.575.5.575h.5c-.504 0-1 0-1 1v11h8V13c0-1-.496-1-1-1h.5c.333 0 .5-.239.5-.575V7.614A.598.598 0 0 0 19.39 7Z"/><path fill="#B4ACBC" d="M30 19.198v.39L29.99 30H18.957l-2.99-1.697L12.977 30H2V18.599c0-.333.31-.599.66-.599h.47c.35 0 .63.266.63.599 0 .332.28.599.63.599h.289c.35 0 .63-.267.63-.6 0-.332.28-.598.63-.598h.46c.35 0 .63.266.63.599 0 .332.28.599.629.599h.3c.35 0 .63-.267.63-.6 0-.332.28-.598.63-.598H9.687c.35 0 .629.266.629.599 0 .332.28.599.63.599h.31c.35 0 .63-.267.63-.6 0-.332.28-.598.63-.598h.46c.349 0 .629.266.629.599 0 .332.28.599.63.599h.29c.35 0 .63-.267.63-.6 0-.332.28-.598.63-.598h.499c.35 0 .63.266.63.599 0 .332.28.599.63.599h.29c.35 0 .63-.267.63-.6 0-.332.279-.598.629-.598h.46c.35 0 .63.266.63.599 0 .332.28.599.63.599h.29c.35 0 .629-.267.629-.6 0-.332.28-.598.63-.598H22.833c.35 0 .63.266.63.599 0 .332.28.599.63.599h.289c.35 0 .63-.267.63-.6 0-.332.28-.598.63-.598h.46c.35 0 .63.266.63.599 0 .332.28.599.629.599h.29c.35 0 .63-.267.63-.6 0-.332.28-.598.63-.598h.46c.35 0 .629.266.629.599v.599Z"/><path fill="#5235A6" d="M15 14h2v-1c0-.557-.456-1-1-1-.557 0-1 .456-1 1v1Zm-2 16h5.99v-3.23c0-1.781-1.33-2.77-2.99-2.77-1.65 0-3 .979-3 2.77V30Z"/><path fill="#26C9FC" d="M7.5 7.306V9.19c0 .215.212.361.414.293l2.35-1.117a.125.125 0 0 0 0-.226l-2.36-1.127a.312.312 0 0 0-.404.293Zm16 0V9.19c0 .215.212.361.414.293l2.35-1.117a.125.125 0 0 0 0-.226l-2.36-1.127a.312.312 0 0 0-.404.293Z"/></svg>
